assets/src/edit-story/icons/edit_pencil.svg

<svg fill="none" height="12" viewBox="0 0 13 12" width="13" xmlns="http://www.w3.org/2000/svg"><path clip-rule="evenodd" d="m10.2466.193333 1.56 1.559997c.26.26.26.68 0 .94l-1.22 1.22-2.50005-2.5 1.22-1.219997c.12667-.1266663.29333-.193333.46667-.193333.17333 0 .33998.06.47338.193333zm-10.2466 9.304997v2.49997h2.5l7.37333-7.3733-2.5-2.5zm1.94732 1.16677h-.61334v-.6134l6.04-6.03998.61334.61333z" fill="#fff" fill-rule="evenodd"/></svg>

<svg width="13" height="12" viewBox="0 0 13 12" fill="none" xmlns="http://www.w3.org/2000/svg">
<path fill-rule="evenodd" clip-rule="evenodd" d="M10.2466 0.193333L11.8066 1.75333C12.0666 2.01333 12.0666 2.43333 11.8066 2.69333L10.5866 3.91333L8.08655 1.41333L9.30655 0.193333C9.43322 0.0666667 9.59988 0 9.77322 0C9.94655 0 10.1132 0.06 10.2466 0.193333ZM0 9.49833V11.9983H2.5L9.87333 4.625L7.37333 2.125L0 9.49833ZM1.94732 10.6651H1.33398V10.0517L7.37398 4.01172L7.98732 4.62505L1.94732 10.6651Z" fill="white"/>
</svg>
